!!!!SEGMENT: pl-wtm--r-1539--007_stefani-jozef--msza-no-1-benedictus.krn
!!!cenid: 18xx:1767
!!!COM: Stefani, Józef
!!!COM-rismID: pe30024097
!!!CDT: 1800/04/16-1876/03/19
!!!CNT: Polish
!!!OPR: Msza No 1
!!!OTL: Benedictus
!!!OMV: 007
!!!PDT:
!!!AGN: Sacred; Mass
!!!SMS-siglum: PL-Wtm
!!!SMS-shelfmark: R 1539
!!!SMS-shelfwork: 001-007 M
!!!SMS-variant:
!!!SMS-altvar:
!!!NIFC-rismSourceID: 1001120484
!!!NIFC-islandoraID: pl-wtm:26320
!!!URL-pdf-islandora: https://repozytorium.nifc.pl/islandora/object/pl-wtm%3A26320/datastream/PDF/view
!!!URL-scan: https://polish.musicsources.pl/pl/lokalizacje/galeria/rekopisy/6340 @EN{Scan on Polish Music Herritage in Open Access Website} @PL{Skany w portalu Dziedzictwo Muzyki Polskiej w otwartym dostępie}
!!!ONB-nifc: UWAGA: części Mszy: 1. Kyrie, 2. Gloria, 3. Graduale, 4. Credo, 5. Offertorium, 6. Sanctus, 7. Benedictus, 8. Agnus Dei. Uwaga: niektóre części razem z „przygrywkami”
!!!AIN: 1 alto 1 empty 1 organ 1 soprn
!!!key:
**kern	**kern	**kern	**text	**dynam	**kern	**dynam	**kern	**text	**dynam
*part4	*part4	*part3	*part3	*part3	*part2	*part2	*part1	*part1	*part1
*staff5	*staff4	*staff3	*staff3	*	*staff2	*	*staff1	*staff1	*
*Iorgan	*Iempty	*Iempty	*	*	*Ialto	*	*Isoprn	*	*
*I"Organo	*	*I"Baſso	*	*	*I"Alto	*	*I"Soprano	*	*
*I'org	*	*I'B	*	*	*I'A	*	*I'S	*	*
*clefF4	*clefG2	*clefF4	*	*	*clefG2	*	*clefG2	*	*
*k[]	*k[]	*k[]	*	*	*k[]	*	*k[]	*	*
*F:	*F:	*F:	*	*	*F:	*	*F:	*	*
*M4/4	*M4/4	*M4/4	*	*	*M4/4	*	*M4/4	*	*
*met(c)	*met(c)	*met(c)	*	*	*met(c)	*	*met(c)	*	*
=1	=1	=1	=1	=1	=1	=1	=1	=1	=1
!	!LO:TX:a:i:t=Andante	!	!	!	!	!	!	!	!
!	!LO:TX:a:i:t=przegrywka do Benedictus.	!	!	!	!	!	!	!	!
2r	2r	1ryy	.	.	1ryy	.	1ryy	.	.
*2\right	*2\right	*	*	*	*	*	*	*	*
2A 2AA\	(2aa 2cc#X [>2a\	.	.	.	.	.	.	.	.
=2	=2	=2	=2	=2	=2	=2	=2	=2	=2
8dL 8D\	4ff 4dd 4a\])	1ryy	.	.	1ryy	.	1ryy	.	.
8c\J	.	.	.	.	.	.	.	.	.
4B\	(4gg 4dd 4g\	.	.	.	.	.	.	.	.
8c\L	4ee 4cc 4g\)	.	.	.	.	.	.	.	.
8B\	.	.	.	.	.	.	.	.	.
8A\	(4ff 4cc 4f\	.	.	.	.	.	.	.	.
8A-X\J	.	.	.	.	.	.	.	.	.
=3	=3	=3	=3	=3	=3	=3	=3	=3	=3
*	*^	*	*	*	*	*	*	*	*
2G\	2ee 2cc 2g\)	4ryy	1ryy	.	.	1ryy	.	1ryy	.	.
.	.	4ryy	.	.	.	.	.	.	.	.
.	8qee/	.	.	.	.	.	.	.	.	.
4.f 4.d 4.G\	4.dd 4.b/	4.g\	.	.	.	.	.	.	.	.
8e 8c\	8cc/	8g\	.	.	.	.	.	.	.	.
=4	=4	=4	=4	=4	=4	=4	=4	=4	=4	=4
4e 4c\	4cc/	4g\	1ryy	.	.	1ryy	.	1ryy	.	.
4r	4b-X 4g/	4ryy	.	.	.	.	.	.	.	.
2r	4a 4f/	4ryy	.	.	.	.	.	.	.	.
.	4g 4c/	4ryy	.	.	.	.	.	.	.	.
*	*v	*v	*	*	*	*	*	*	*	*
!!LO:LB:g=original
=5	=5	=5	=5	=5	=5	=5	=5	=5	=5
*	*	*clefF4	*	*	*clefG2	*	*clefG2	*	*
*	*	*k[b-]	*	*	*k[b-]	*	*k[b-]	*	*
*	*	*2\right	*	*	*	*	*	*	*
!	!	!	!	!	!	!	!LO:TX:a:i:t=Andante.	!	!
!	!	!	!	!	!	!LO:DY:a	!LO:TX:a:i:t=Benedictus Tercettino.	!	!
1ryy	1ryy	2F\	.	p	2f/	p	2a/	Wszech-	p
.	.	4C\	.	.	4e/	.	4g/	-mo-	.
.	.	4D\	.	.	4d/	.	4f/	-cny	.
=6	=6	=6	=6	=6	=6	=6	=6	=6	=6
1ryy	1ryy	(4.C\	.	.	(4.e/	.	(4.g/	Pa-	<
.	.	8F\)	.	.	8f/)	.	8a/)	.	[ >
.	.	2F\	.	.	2f/	.	2a/	-nie	]]
=7	=7	=7	=7	=7	=7	=7	=7	=7	=7
1ryy	1ryy	4.C/	.	.	4.e/	.	4.g/	wie-	.
.	.	8C/	.	.	8e/	.	8g/	-ku-	.
.	.	4F\	.	.	4f/	.	4a/	-i-	.
.	.	4A\	.	.	4f/	.	4cc\	-sty	.
=8	=8	=8	=8	=8	=8	=8	=8	=8	=8
1ryy	1ryy	2c\	.	.	(4f/	.	2g/	Bo-	.
.	.	.	.	<	8e/L	.	.	.	.
.	.	.	.	.	8d/J	.	.	.	<
.	.	4C/	.	.	4e/)	.	4g/	-że	.
.	.	4C/	.	[ f	4e/	.	4cc\	Któż	[
=9	=9	=9	=9	=9	=9	=9	=9	=9	=9
*	*	*	*	*	*	*	*2\right	*	*
!	!	!	!	!	!	!	!	!	!LO:DY:rj
1ryy	1ryy	(4BB-/	.	.	2f/	.	2dd\	się	f
.	.	4B-\)	.	.	.	.	.	.	.
.	.	2A\	.	.	2f/	.	2cc\	Twym	.
!!LO:LB:g=original
=10	=10	=10	=10	=10	=10	=10	=10	=10	=10
1ryy	1ryy	2G\	.	.	(4d/	.	(4.cc\	spra-	.
.	.	.	.	.	4e/)	.	.	.	.
.	.	.	.	.	.	.	8b-X/)	.	.
.	.	2F\	.	.	2f/	.	2a/	-wom	.
=11	=11	=11	=11	=11	=11	=11	=11	=11	=11
1ryy	1ryy	4.C/	.	.	4.e/	.	4.g/	wy-	.
.	.	8C/	.	.	8e/	.	8g/	-dzi-	.
.	.	4F\	.	.	4f/	.	4a/	-wo-	.
.	.	4D\	.	.	4d/	.	4bn/	-wać	.
=12	=12	=12	=12	=12	=12	=12	=12	=12	=12
1ryy	1ryy	4G\	.	.	2f/	.	2dd\	mo-	.
.	.	8A\L	.	.	.	.	.	.	.
.	.	8Bn\J	.	.	.	.	.	.	.
.	.	8c\	.	.	8e/	.	8cc\	-ze	.
.	.	8A\	.	.	8e/	.	8cc\	Kto	p <
.	.	8G#X\	.	.	8e/	.	8bn\	ro-	.
.	.	8A\	.	.	8e/	.	8cc\	-zu-	.
=13	=13	=13	=13	=13	=13	=13	=13	=13	=13
1ryy	1ryy	2E\	.	.	2g#X/	.	(4.ee\	-mo-	[ >
.	.	.	.	.	.	.	8dd\)	.	.
.	.	2A\	.	.	2a/	.	2cc\	-wi	]
!!LO:LB:g=original
=14	=14	=14	=14	=14	=14	=14	=14	=14	=14
1ryy	1ryy	4.F\	.	.	4.a/	.	4.dd\	Któ-	<
.	.	8F\	.	.	8a/	.	8dd\	-rym	.
.	.	4F\	.	.	4a/	.	4cc\	nie-	.
.	.	4F\	.	.	4a/	.	4dd\	-zmie-	[
=15	=15	=15	=15	=15	=15	=15	=15	=15	=15
1ryy	1ryy	2E\	.	.	2g#X/	.	2ee\	-rzo-	.
.	.	2E\	.	.	2g#/	.	2ee\	-na	.
=16	=16	=16	=16	=16	=16	=16	=16	=16	=16
!	!	!	!	!	!	!	!	!	!LO:DY:rj
1ryy	1ryy	2D\	.	.	2g#X/	.	2ff\	Zie-	f
.	.	4.C/	.	.	4.a/	.	4.ee\	-mia	.
.	.	8C/	.	.	8a/	.	8ee\	stwo-	.
=17	=17	=17	=17	=17	=17	=17	=17	=17	=17
1ryy	1ryy	2BB-/	.	.	2g#X/	.	(4.ee\	-rzo-	.
.	.	.	.	.	.	.	8dd\)	.	.
.	.	4AA/	.	.	4a/	.	4cc\	-na	.
.	.	4E\	.	.	4gn/	.	4cc\	ta	.
!!LO:LB:g=original
=18	=18	=18	=18	=18	=18	=18	=18	=18	=18
1ryy	1ryy	2D\	.	.	2f/	.	(4cc\	zie-	.
.	.	.	.	.	.	.	8bn\L)	.	.
.	.	.	.	.	.	.	8a\J	.	.
.	.	4D\	.	.	4f/	.	4.b\	-mia	.
.	.	4D-X\	.	.	4f/	.	.	.	.
.	.	.	.	.	.	.	8b\	stwo-	.
=19	=19	=19	=19	=19	=19	=19	=19	=19	=19
1ryy	1ryy	(2..D-X\	.	.	(2..f/	.	(2..bn\	-rzo-	.
.	.	8C\)	.	.	8e/)	.	8cc\)	.	.
=20	=20	=20	=20	=20	=20	=20	=20	=20	=20
1ryy	1ryy	[2C\	.	.	[2e/	.	[2cc\	-na.	.
.	.	8C;\]	.	.	8e;/]	.	8cc;\]	.	.
.	.	8C\	Gdzie-	.	8r	.	8r	.	.
.	.	8F\	-kol-	.	4r	.	4r	.	.
.	.	8A\	-wiek	.	.	.	.	.	.
!!LO:LB:g=original
=21	=21	=21	=21	=21	=21	=21	=21	=21	=21
1ryy	1ryy	4.c\	słoń-	.	1r	.	1r	.	.
.	.	8A\	-ce	.	.	.	.	.	.
.	.	8F\	rzu-	.	.	.	.	.	.
.	.	8A\	-ca	.	.	.	.	.	.
.	.	8D\	o-	.	.	.	.	.	.
.	.	8D-X\	-gnie	.	.	.	.	.	.
=22	=22	=22	=22	=22	=22	=22	=22	=22	=22
1ryy	1ryy	(4.C/	swo-	.	2r	.	2r	.	.
.	.	8F\)	.	.	.	.	.	.	.
.	.	8F\	-je	.	8r	.	8r	.	.
.	.	8F\	.	.	8f/	.	8a/	Po	<
.	.	8F\	.	.	8g/	.	8b-/	ca-	.
.	.	8F\	.	.	8g#X/	.	8bn/	-łym	[[
=23	=23	=23	=23	=23	=23	=23	=23	=23	=23
1ryy	1ryy	4F\	.	.	4a/	.	4cc\	swie-	.
.	.	4A\	.	.	4f/	.	4a/	-cie	.
.	.	8c\	.	.	8e/	.	8g/	sły-	.
.	.	8c\	.	.	8f/	.	8a/	-nie	.
.	.	8C/	.	.	8g/	.	8b-X\	I-	.
.	.	8C/	.	.	8e/	.	8cc\	-mie	.
!!LO:LB:g=original
=24	=24	=24	=24	=24	=24	=24	=24	=24	=24
1ryy	1ryy	4C#X^>/	.	.	4e/	.	4b-^>/	Two-	.
.	.	4D/	.	.	4f/	.	4a/	-je	.
.	.	8r	.	.	8r	.	8r	.	.
.	.	8D\	.	.	8f/	.	8a/	Bo	.
.	.	8d\	.	.	8f/	.	8b-/	sła-	.
.	.	8c\	.	.	8f/	.	8a/	-wy	.
=25	=25	=25	=25	=25	=25	=25	=25	=25	=25
1ryy	1ryy	2B-\	.	.	2f/	.	2dd\	Nie-	.
.	.	4A\	.	.	4f/	.	4cc\	-bo	.
.	.	4A\	.	.	4f/	.	4cc\	o-	.
=26	=26	=26	=26	=26	=26	=26	=26	=26	=26
1ryy	1ryy	2G\	.	.	(4d/	.	(4.cc\	-gar-	.
.	.	.	.	.	4e/)	.	.	.	.
.	.	.	.	.	.	.	8b-\)	.	.
.	.	4F\	.	.	4f/	.	4a/	-nąc	.
.	.	4F\	.	.	4f/	.	4a/	nie	p
=27	=27	=27	=27	=27	=27	=27	=27	=27	=27
1ryy	1ryy	1C	.	.	(4f/	.	(2.g/	mo-	.
.	.	.	.	.	8e/L	.	.	.	.
.	.	.	.	.	8d/J	.	.	.	.
.	.	.	.	.	2e/)	.	.	.	.
.	.	.	.	.	.	.	4cc\)	.	.
!!LO:LB:g=original
=28	=28	=28	=28	=28	=28	=28	=28	=28	=28
1ryy	1ryy	2D\	.	.	2f/	.	2a/	-że	.
.	.	8r	.	.	8r	.	8r	.	.
!	!	!	!	!LO:HP:b	!	!	!	!	!
.	.	8d\	.	<	8f/	.	8a/	Po-	<
.	.	8d\	.	.	8f/	.	8a/	-tę-	.
.	.	8d-X\	.	[[	8f/	.	8bn/	-żny	[[
=29	=29	=29	=29	=29	=29	=29	=29	=29	=29
1ryy	1ryy	2c\	.	.	2a/	.	2cc\	Bo-	.
.	.	4C/	.	.	4f/	.	4a/	-że	.
.	.	.	.	f	.	.	.	.	f
.	.	4c\	.	.	4a/	.	4ff\	Po-	.
=30	=30	=30	=30	=30	=30	=30	=30	=30	=30
1ryy	1ryy	4.c\	.	.	4.g/	.	4ff\	-tę-	.
.	.	.	.	.	.	.	(8ee\L	-żny	.
.	.	8c\	.	.	8g/	.	8dd\J)	.	.
.	.	(4.C/	.	.	(4.g/	.	(4.ee\	Bo-	.
.	.	8F\)	.	.	8a/)	.	8ff\)	.	.
=31	=31	=31	=31	=31	=31	=31	=31	=31	=31
1ryy	1ryy	1F	.	.	1a	.	1ff	-że.	.
==	==	==	==	==	==	==	==	==	==
*-	*-	*-	*-	*-	*-	*-	*-	*-	*-
!!!system-decoration: {s1,s2,s3}{s4,s5}
!!!RDF**kern: > = above
!!!ENC: Marta Lawrence
!!!END: 2021-04-22
!!!ENC: Krzysztof Stępień
!!!END: 2021-04-06
